Papirus/48x48/applets/minimizeall.svg

<?xml version="1.0" encoding="UTF-8" standalone="no"?>
<svg id="svg4222" xmlns:rdf="http://www.w3.org/1999/02/22-rdf-syntax-ns#" xmlns="http://www.w3.org/2000/svg" height="48" width="48" version="1.1" xmlns:cc="http://creativecommons.org/ns#" viewBox="0 0 48 48.000001" xmlns:dc="http://purl.org/dc/elements/1.1/">
 <metadata id="metadata4227">
  <rdf:RDF>
   <cc:Work rdf:about="">
    <dc:format>image/svg+xml</dc:format>
    <dc:type rdf:resource="http://purl.org/dc/dcmitype/StillImage"/>
    <dc:title/>
   </cc:Work>
  </rdf:RDF>
 </metadata>
 <path id="rect4203" fill="#4ab3e4" d="m6 6c-1.108 0-2 0.892-2 2v30h40v-30c0-1.108-0.892-2-2-2h-36z"/>
 <path id="rect3328" fill="#253951" d="m6 42c-1.108 0-2-0.892-2-2v-2h40v2c0 1.108-0.892 2-2 2z"/>
 <path id="path3345" opacity=".1" fill="#fff" d="m6 6c-1.108 0-2 0.892-2 2v1c0-1.108 0.892-2 2-2h36c1.108 0 2 0.892 2 2v-1c0-1.108-0.892-2-2-2z"/>
 <path id="path4144" opacity=".2" d="m4 40v1c0 1.108 0.892 2 2 2h36c1.108 0 2-0.892 2-2v-1c0 1.108-0.892 2-2 2h-36c-1.108 0-2-0.892-2-2z"/>
</svg>

<?xml version="1.0" encoding="UTF-8" standalone="no"?>
<svg
   xmlns:dc="http://purl.org/dc/elements/1.1/"
   xmlns:cc="http://creativecommons.org/ns#"
   xmlns:rdf="http://www.w3.org/1999/02/22-rdf-syntax-ns#"
   xmlns:svg="http://www.w3.org/2000/svg"
   xmlns="http://www.w3.org/2000/svg"
   version="1.1"
   width="48"
   viewBox="0 0 48 48.000001"
   height="48"
   id="svg4222">
  <defs
     id="defs10" />
  <metadata
     id="metadata4227">
    <rdf:RDF>
      <cc:Work
         rdf:about="">
        <dc:format>image/svg+xml</dc:format>
        <dc:type
           rdf:resource="http://purl.org/dc/dcmitype/StillImage" />
        <dc:title></dc:title>
      </cc:Work>
    </rdf:RDF>
  </metadata>
  <path
     d="M 6,6 C 4.892,6 4,6.892 4,8 L 4,38 44,38 44,8 C 44,6.892 43.108,6 42,6 L 6,6 Z"
     id="rect4203"
     style="fill:#4ab3e4" />
  <path
     d="M 6,42 C 4.892,42 4,41.108 4,40 l 0,-2 40,0 0,2 c 0,1.108 -0.892,2 -2,2 z"
     id="rect3328"
     style="fill:#253951" />
  <path
     d="M 6,6 C 4.892,6 4,6.892 4,8 L 4,9 C 4,7.892 4.892,7 6,7 l 36,0 c 1.108,0 2,0.892 2,2 L 44,8 C 44,6.892 43.108,6 42,6 Z"
     id="path3345"
     style="opacity:0.1;fill:#ffffff" />
  <path
     d="m 4,40 0,1 c 0,1.108 0.892,2 2,2 l 36,0 c 1.108,0 2,-0.892 2,-2 l 0,-1 c 0,1.108 -0.892,2 -2,2 L 6,42 C 4.892,42 4,41.108 4,40 Z"
     id="path4144"
     style="opacity:0.2" />
</svg>
